packages/fxa-payments-server/src/images/visa.svg

<svg width="38" height="24" viewBox="0 0 38 24" fill="none" xmlns="http://www.w3.org/2000/svg">
<g clip-path="url(#clip0)">
<path d="M1.92 0H35.52C36.5804 0 37.44 0.859632 37.44 1.92V22.08C37.44 23.1404 36.5804 24 35.52 24H1.92C0.859632 24 0 23.1404 0 22.08V1.92C0 0.859632 0.859632 0 1.92 0Z" fill="#0E4595"/>
<path d="M14.0736 16.739L15.6749 7.34255H18.2362L16.6337 16.739H14.0736ZM25.8869 7.54511C25.3795 7.35474 24.5843 7.15045 23.5914 7.15045C21.0606 7.15045 19.2779 8.42485 19.2628 10.2514C19.2484 11.6016 20.5355 12.3549 21.5069 12.8043C22.5039 13.2649 22.839 13.5586 22.8343 13.9699C22.828 14.5997 22.0382 14.8875 21.302 14.8875C20.2769 14.8875 19.7323 14.7451 18.8911 14.3942L18.5611 14.245L18.2016 16.3485C18.7998 16.6107 19.9061 16.838 21.0546 16.8497C23.747 16.8497 25.4946 15.5899 25.5146 13.6394C25.5242 12.5705 24.8418 11.757 23.3642 11.0864C22.469 10.6517 21.9207 10.3616 21.9265 9.9215C21.9265 9.53092 22.3906 9.11322 23.3932 9.11322C24.2308 9.10026 24.8376 9.2829 25.3103 9.47322L25.5398 9.5817L25.8869 7.54511ZM32.4778 7.3424H30.4986C29.8855 7.3424 29.4267 7.50978 29.1575 8.12164L25.3538 16.7329H28.0433C28.0433 16.7329 28.4829 15.5749 28.5824 15.3208C28.8764 15.3208 31.489 15.3248 31.8626 15.3248C31.9392 15.6538 32.1741 16.7329 32.1741 16.7329H34.5508L32.4778 7.34212V7.3424ZM29.3377 13.4101C29.5495 12.8687 30.3582 10.7834 30.3582 10.7834C30.343 10.8084 30.5684 10.2394 30.6978 9.88655L30.8708 10.6967C30.8708 10.6967 31.3613 12.9397 31.4638 13.4101H29.3377ZM11.8993 7.3424L9.39178 13.7504L9.12456 12.4482C8.65776 10.9471 7.20336 9.32073 5.57745 8.5065L7.87022 16.7241L10.5801 16.721L14.6123 7.34231H11.8993" fill="white"/>
<path d="M7.05218 7.34208H2.92221L2.88953 7.53758C6.10255 8.31538 8.22857 10.195 9.11129 12.4533L8.21321 8.13518C8.05817 7.54022 7.60855 7.36267 7.05228 7.34189" fill="#F2AE14"/>
</g>
<defs>
<clipPath id="clip0">
<rect width="37.44" height="24" fill="white"/>
</clipPath>
</defs>
</svg>

<svg width="38" height="24" fill="none" xmlns="http://www.w3.org/2000/svg"><g clip-path="url(#clip0)"><path d="M1.92 0h33.6c1.06 0 1.92.86 1.92 1.92v20.16c0 1.06-.86 1.92-1.92 1.92H1.92A1.92 1.92 0 010 22.08V1.92C0 .86.86 0 1.92 0z" fill="#0E4595"/><path d="M14.074 16.739l1.6-9.396h2.562l-1.602 9.396h-2.56zm11.813-9.194a6.615 6.615 0 00-2.296-.395c-2.53 0-4.313 1.275-4.328 3.101-.015 1.35 1.272 2.104 2.244 2.553.997.46 1.332.755 1.327 1.166-.006.63-.796.917-1.532.917-1.025 0-1.57-.142-2.41-.493l-.33-.149-.36 2.104c.598.262 1.704.489 2.853.5 2.692 0 4.44-1.26 4.46-3.21.01-1.069-.673-1.882-2.15-2.553-.896-.434-1.444-.724-1.438-1.165 0-.39.464-.808 1.466-.808a4.727 4.727 0 011.917.36l.23.109.347-2.037zm6.59-.203H30.5c-.613 0-1.072.168-1.341.78l-3.804 8.61h2.69s.439-1.157.538-1.411l3.28.004c.077.329.312 1.408.312 1.408h2.377l-2.073-9.39zm-3.14 6.068c.212-.541 1.021-2.627 1.021-2.627-.015.025.21-.544.34-.896l.173.81.593 2.713h-2.126zM11.9 7.342L9.392 13.75l-.267-1.302c-.467-1.5-1.922-3.127-3.548-3.941l2.293 8.217 2.71-.003 4.032-9.379H11.9" fill="#fff"/><path d="M7.052 7.342h-4.13l-.032.196c3.213.777 5.339 2.657 6.221 4.915l-.898-4.318c-.155-.595-.604-.772-1.16-.793" fill="#F2AE14"/></g><defs><clipPath id="clip0"><path fill="#fff" d="M0 0h37.44v24H0z"/></clipPath></defs></svg>
